_includes/icons/ios-facebook-circled.svg

<svg fill="#666" height="50" viewBox="0 0 50 50" width="50" xmlns="http://www.w3.org/2000/svg"><path d="m25 2c-12.690705 0-23 10.309295-23 23s10.309295 23 23 23 23-10.309295 23-23-10.309295-23-23-23zm0 2c11.609824 0 21 9.390176 21 21s-9.390176 21-21 21-21-9.390176-21-21 9.390176-21 21-21zm1.580078 6c-2.651858 0-4.663002.867217-5.902344 2.400391-1.239341 1.533173-1.677734 3.580655-1.677734 5.826171v1.773438h-2a1.0001 1.0001 0 0 0 -1 1v5a1.0001 1.0001 0 0 0 1 1h2v12a1.0001 1.0001 0 0 0 1 1h6a1.0001 1.0001 0 0 0 1-1v-12h4a1.0001 1.0001 0 0 0 .980469-.804688l1-5a1.0001 1.0001 0 0 0 -.980469-1.195312h-5v-2.193359c0-.485024.03137-.481027.171875-.572266.14051-.091239.648322-.234375 1.539063-.234375h3.289062a1.0001 1.0001 0 0 0 1-1v-4a1.0001 1.0001 0 0 0 -.664062-.941406s-2.879601-1.058594-5.75586-1.058594zm0 2c1.892421 0 3.647423.510447 4.419922.751953v2.248047h-2.289062c-1.047261 0-1.896964.08458-2.626954.558594-.729989.474011-1.083984 1.38207-1.083984 2.248047v3.193359a1.0001 1.0001 0 0 0 1 1h4.779297l-.599609 3h-4.179688a1.0001 1.0001 0 0 0 -1 1v12h-4v-12a1.0001 1.0001 0 0 0 -1-1h-2v-3h2a1.0001 1.0001 0 0 0 1-1v-2.773438c0-1.979482.405014-3.544783 1.232422-4.568359s2.104514-1.658203 4.347656-1.658203z"/></svg>

<svg xmlns="http://www.w3.org/2000/svg" viewBox="0 0 50 50" width="50" height="50" fill="#666"><path style="line-height:normal;text-indent:0;text-align:start;text-decoration-line:none;text-decoration-style:solid;text-decoration-color:#000;text-transform:none;block-progression:tb;isolation:auto;mix-blend-mode:normal" d="M 25 2 C 12.309295 2 2 12.309295 2 25 C 2 37.690705 12.309295 48 25 48 C 37.690705 48 48 37.690705 48 25 C 48 12.309295 37.690705 2 25 2 z M 25 4 C 36.609824 4 46 13.390176 46 25 C 46 36.609824 36.609824 46 25 46 C 13.390176 46 4 36.609824 4 25 C 4 13.390176 13.390176 4 25 4 z M 26.580078 10 C 23.92822 10 21.917076 10.867217 20.677734 12.400391 C 19.438393 13.933564 19 15.981046 19 18.226562 L 19 20 L 17 20 A 1.0001 1.0001 0 0 0 16 21 L 16 26 A 1.0001 1.0001 0 0 0 17 27 L 19 27 L 19 39 A 1.0001 1.0001 0 0 0 20 40 L 26 40 A 1.0001 1.0001 0 0 0 27 39 L 27 27 L 31 27 A 1.0001 1.0001 0 0 0 31.980469 26.195312 L 32.980469 21.195312 A 1.0001 1.0001 0 0 0 32 20 L 27 20 L 27 17.806641 C 27 17.321617 27.03137 17.325614 27.171875 17.234375 C 27.312385 17.143136 27.820197 17 28.710938 17 L 32 17 A 1.0001 1.0001 0 0 0 33 16 L 33 12 A 1.0001 1.0001 0 0 0 32.335938 11.058594 C 32.335938 11.058594 29.456337 10 26.580078 10 z M 26.580078 12 C 28.472499 12 30.227501 12.510447 31 12.751953 L 31 15 L 28.710938 15 C 27.663677 15 26.813974 15.08458 26.083984 15.558594 C 25.353995 16.032605 25 16.940664 25 17.806641 L 25 21 A 1.0001 1.0001 0 0 0 26 22 L 30.779297 22 L 30.179688 25 L 26 25 A 1.0001 1.0001 0 0 0 25 26 L 25 38 L 21 38 L 21 26 A 1.0001 1.0001 0 0 0 20 25 L 18 25 L 18 22 L 20 22 A 1.0001 1.0001 0 0 0 21 21 L 21 18.226562 C 21 16.24708 21.405014 14.681779 22.232422 13.658203 C 23.05983 12.634627 24.336936 12 26.580078 12 z"/></svg>
